; G-Code generated by Simplify3D(R) Version 4.0.0
; Aug 27, 2018 at 7:26:08 AM
; Settings Summary
;   processName,Process1
;   applyToModels,Heat_tower_190-240_Bridge
;   profileName,Ender 3 (modified)
;   profileVersion,2018-08-24 07:43:03
;   baseProfile,Default (modified)
;   printMaterial,PLA
;   printQuality,Medium
;   printExtruders,
;   extruderName,Primary Extruder
;   extruderToolheadNumber,0
;   extruderDiameter,0.4
;   extruderAutoWidth,1
;   extruderWidth,0.48
;   extrusionMultiplier,1
;   extruderUseRetract,1
;   extruderRetractionDistance,8
;   extruderExtraRestartDistance,0
;   extruderRetractionZLift,0
;   extruderRetractionSpeed,1800
;   extruderUseCoasting,1
;   extruderCoastingDistance,0.4
;   extruderUseWipe,1
;   extruderWipeDistance,5
;   primaryExtruder,0
;   layerHeight,0.2
;   topSolidLayers,4
;   bottomSolidLayers,4
;   perimeterOutlines,3
;   printPerimetersInsideOut,1
;   startPointOption,2
;   startPointOriginX,0
;   startPointOriginY,0
;   sequentialIslands,0
;   spiralVaseMode,0
;   firstLayerHeightPercentage,90
;   firstLayerWidthPercentage,115
;   firstLayerUnderspeed,0.3
;   useRaft,0
;   raftExtruder,0
;   raftTopLayers,3
;   raftBaseLayers,2
;   raftOffset,3
;   raftSeparationDistance,0.14
;   raftTopInfill,100
;   aboveRaftSpeedMultiplier,0.3
;   useSkirt,1
;   skirtExtruder,0
;   skirtLayers,1
;   skirtOutlines,2
;   skirtOffset,4
;   usePrimePillar,0
;   primePillarExtruder,999
;   primePillarWidth,12
;   primePillarLocation,7
;   primePillarSpeedMultiplier,1
;   useOozeShield,0
;   oozeShieldExtruder,999
;   oozeShieldOffset,2
;   oozeShieldOutlines,1
;   oozeShieldSidewallShape,1
;   oozeShieldSidewallAngle,30
;   oozeShieldSpeedMultiplier,1
;   infillExtruder,0
;   internalInfillPattern,Rectilinear
;   externalInfillPattern,Rectilinear
;   infillPercentage,10
;   outlineOverlapPercentage,30
;   infillExtrusionWidthPercentage,100
;   minInfillLength,5
;   infillLayerInterval,1
;   internalInfillAngles,45,-45
;   overlapInternalInfillAngles,0
;   externalInfillAngles,45,-45
;   generateSupport,0
;   supportExtruder,0
;   supportInfillPercentage,30
;   supportExtraInflation,0
;   supportBaseLayers,1
;   denseSupportExtruder,0
;   denseSupportLayers,0
;   denseSupportInfillPercentage,70
;   supportLayerInterval,1
;   supportHorizontalPartOffset,0.3
;   supportUpperSeparationLayers,1
;   supportLowerSeparationLayers,1
;   supportType,0
;   supportGridSpacing,3
;   maxOverhangAngle,60
;   supportAngles,0
;   temperatureName,Primary Extruder,Bed
;   temperatureNumber,0,0
;   temperatureSetpointCount,11,1
;   temperatureSetpointLayers,1,25,50,75,100,125,150,175,200,225,250,1
;   temperatureSetpointTemperatures,240,235,230,225,220,215,210,205,200,195,190,60
;   temperatureStabilizeAtStartup,1,1
;   temperatureHeatedBed,0,1
;   temperatureRelayBetweenLayers,0,0
;   temperatureRelayBetweenLoops,0,0
;   fanLayers,1,2
;   fanSpeeds,0,80
;   blipFanToFullPower,0
;   adjustSpeedForCooling,1
;   minSpeedLayerTime,15
;   minCoolingSpeedSlowdown,20
;   increaseFanForCooling,1
;   minFanLayerTime,30
;   maxCoolingFanSpeed,100
;   increaseFanForBridging,0
;   bridgingFanSpeed,100
;   use5D,1
;   relativeEdistances,0
;   allowEaxisZeroing,1
;   independentExtruderAxes,0
;   includeM10123,0
;   stickySupport,1
;   applyToolheadOffsets,0
;   gcodeXoffset,0
;   gcodeYoffset,0
;   gcodeZoffset,0
;   overrideMachineDefinition,1
;   machineTypeOverride,0
;   strokeXoverride,220
;   strokeYoverride,220
;   strokeZoverride,250
;   originOffsetXoverride,0
;   originOffsetYoverride,0
;   originOffsetZoverride,0
;   homeXdirOverride,-1
;   homeYdirOverride,-1
;   homeZdirOverride,-1
;   flipXoverride,1
;   flipYoverride,-1
;   flipZoverride,1
;   toolheadOffsets,0,0|0,0|0,0|0,0|0,0|0,0
;   overrideFirmwareConfiguration,0
;   firmwareTypeOverride,RepRap (Marlin/Repetier/Sprinter)
;   GPXconfigOverride,r2
;   baudRateOverride,115200
;   overridePrinterModels,0
;   printerModelsOverride
;   startingGcode,G28 ; home all axes,G29; BLTOUCH mesh generation,G92 E0.0,G1 Z5;,G1 X10 Y10 Z0 F6000;,G1 X60.0 E9.0  F1000.0 ; intro line,G1 X100.0 E12.5  F1000.0 ; intro line,G92 E0.0
;   layerChangeGcode,G4 P1
;   retractionGcode,
;   toolChangeGcode,
;   endingGcode,G28 X0 Y0 ; home X axis and y axis,;G1 Z180 F300 ; lower platform to bottom,M104 S0 ; kill extruder temperature,M140 S0 ; kill bed temperature,M107; kill fan,M84 ; disable motors
;   exportFileFormat,gcode
;   celebration,0
;   celebrationSong,Random Song
;   postProcessing,curl -k -H "X-Api-Key: B48F0C35933E47C49712EE720641ACF0" -F "select=false" -F "print=false" -F "file=@[output_filepath]" "http://192.168.0.5/api/files/local" {STRIP "; postProcessing"}
;   defaultSpeed,4200
;   outlineUnderspeed,0.5
;   solidInfillUnderspeed,0.8
;   supportUnderspeed,0.8
;   rapidXYspeed,6000
;   rapidZspeed,1000
;   minBridgingArea,50
;   bridgingExtraInflation,0
;   bridgingExtrusionMultiplier,1
;   bridgingSpeedMultiplier,1
;   useFixedBridgingAngle,0
;   fixedBridgingAngle,0
;   applyBridgingToPerimeters,0
;   filamentDiameters,1.75|1.75|1.75|1.75|1.75|1.75
;   filamentPricesPerKg,46|46|46|46|46|46
;   filamentDensities,1.25|1.25|1.25|1.25|1.25|1.25
;   useMinPrintHeight,0
;   minPrintHeight,0
;   useMaxPrintHeight,0
;   maxPrintHeight,0
;   useDiaphragm,0
;   diaphragmLayerInterval,20
;   robustSlicing,1
;   mergeAllIntoSolid,0
;   onlyRetractWhenCrossingOutline,1
;   retractBetweenLayers,1
;   useRetractionMinTravel,0
;   retractionMinTravel,3
;   retractWhileWiping,1
;   onlyWipeOutlines,1
;   avoidCrossingOutline,1
;   maxMovementDetourFactor,20
;   toolChangeRetractionDistance,12
;   toolChangeExtraRestartDistance,-0.5
;   toolChangeRetractionSpeed,600
;   externalThinWallType,0
;   internalThinWallType,2
;   thinWallAllowedOverlapPercentage,10
;   singleExtrusionMinLength,1
;   singleExtrusionMinPrintingWidthPercentage,50
;   singleExtrusionMaxPrintingWidthPercentage,200
;   singleExtrusionEndpointExtension,0.2
;   horizontalSizeCompensation,0
G90
M82
M106 S0
M140 S60
M190 S60
M104 S240 T0
M109 S240 T0
G28 ; home all axes
G92 E0.0
G1 Z5;
G1 X10 Y10 Z0 F6000;
G1 X60.0 E9.0  F1000.0 ; intro line
G1 X100.0 E12.5  F1000.0 ; intro line
G92 E0.0
G92 E0
G1 E-8.0000 F1800
G1 Z0.180 F1000
; process Process1
; layer 1, Z = 0.180
G4 P1
T0
; tool H0.200 W0.552
; skirt
G1 X89.435 Y95.682 F6000
G1 E0.0000 F540
G92 E0
G1 X89.700 Y95.573 E0.0131 F1260
G1 X95.300 Y95.573 E0.2702
G1 X95.565 Y95.682 E0.2833
G1 X98.110 Y98.228 E0.4486
G1 X98.220 Y98.493 E0.4617
G1 X98.220 Y112.093 E1.0860
G1 X98.110 Y112.357 E1.0991
G1 X95.565 Y114.903 E1.2643
G1 X95.300 Y115.013 E1.2775
G1 X89.700 Y115.013 E1.5345
G1 X89.435 Y114.903 E1.5477
G1 X86.890 Y112.357 E1.7129
G1 X86.780 Y112.093 E1.7261
G1 X86.780 Y98.493 E2.3503
G1 X86.890 Y98.228 E2.3635
G1 X89.152 Y95.965 E2.5103
G1 X89.435 Y95.682 F1260
G1 X103.780 Y98.493 F6000
G92 E0
G1 X103.890 Y98.228 E0.0131 F1260
G1 X106.435 Y95.682 E0.1784
G1 X106.700 Y95.573 E0.1915
G1 X125.390 Y95.573 E1.0494
G1 X125.655 Y95.682 E1.0625
G1 X128.200 Y98.228 E1.2278
G1 X128.310 Y98.493 E1.2409
G1 X128.310 Y113.522 E1.9308
G1 X128.288 Y113.647 E1.9366
G1 X127.757 Y115.098 E2.0075
G1 X127.693 Y115.207 E2.0133
G1 X120.268 Y123.989 E2.5411
G1 X120.144 Y124.084 E2.5483
G1 X118.399 Y124.893 E2.6366
G1 X118.246 Y124.927 E2.6438
G1 X116.981 Y124.927 E2.7019
G1 X116.945 Y124.925 E2.7035
G1 X116.519 Y124.883 E2.7232
G1 X116.484 Y124.878 E2.7248
G1 X114.851 Y124.553 E2.8012
G1 X114.828 Y124.548 E2.8023
G1 X114.552 Y124.474 E2.8154
G1 X114.530 Y124.467 E2.8165
G1 X113.021 Y123.955 E2.8896
G1 X112.999 Y123.947 E2.8907
G1 X112.735 Y123.838 E2.9038
G1 X112.714 Y123.828 E2.9049
G1 X111.284 Y123.123 E2.9780
G1 X111.264 Y123.112 E2.9791
G1 X111.016 Y122.969 E2.9922
G1 X110.996 Y122.957 E2.9933
G1 X109.671 Y122.072 E3.0664
G1 X109.652 Y122.058 E3.0675
G1 X109.426 Y121.884 E3.0806
G1 X109.408 Y121.869 E3.0817
G1 X108.210 Y120.818 E3.1548
G1 X108.192 Y120.802 E3.1559
G1 X107.990 Y120.600 E3.1690
G1 X107.974 Y120.583 E3.1701
G1 X106.924 Y119.385 E3.2432
G1 X106.909 Y119.367 E3.2443
G1 X106.735 Y119.141 E3.2574
G1 X106.721 Y119.121 E3.2585
G1 X105.836 Y117.796 E3.3317
G1 X105.823 Y117.776 E3.3327
G1 X105.681 Y117.529 E3.3458
G1 X105.670 Y117.508 E3.3469
G1 X104.965 Y116.079 E3.4201
G1 X104.955 Y116.058 E3.4211
G1 X104.846 Y115.794 E3.4342
G1 X104.838 Y115.772 E3.4353
G1 X104.325 Y114.263 E3.5085
G1 X104.318 Y114.240 E3.5095
G1 X104.245 Y113.965 E3.5227
G1 X104.239 Y113.942 E3.5237
G1 X103.928 Y112.379 E3.5969
G1 X103.925 Y112.356 E3.5980
G1 X103.887 Y112.073 E3.6111
G1 X103.885 Y112.049 E3.6121
G1 X103.785 Y110.530 E3.6820
G1 X103.785 Y110.518 E3.6825
G1 X103.780 Y110.376 E3.6891
G1 X103.780 Y110.364 E3.6896
G1 X103.780 Y98.893 E4.2162
G1 X103.780 Y98.493 F1260
G1 X104.260 Y98.588 F6000
G92 E0
G1 X104.297 Y98.500 E0.0044 F1260
G1 X106.707 Y96.089 E0.1609
G1 X106.795 Y96.053 E0.1652
G1 X125.295 Y96.053 E1.0143
G1 X125.383 Y96.089 E1.0187
G1 X127.793 Y98.500 E1.1752
G1 X127.830 Y98.588 E1.1796
G1 X127.830 Y113.480 E1.8631
G1 X127.823 Y113.522 E1.8650
G1 X127.321 Y114.893 E1.9321
G1 X127.299 Y114.930 E1.9340
G1 X119.936 Y123.639 E2.4575
G1 X119.894 Y123.671 E2.4599
G1 X118.245 Y124.436 E2.5433
G1 X118.194 Y124.447 E2.5457
G1 X116.992 Y124.447 E2.6009
G1 X116.981 Y124.447 E2.6014
G1 X116.578 Y124.407 E2.6200
G1 X116.566 Y124.405 E2.6206
G1 X114.952 Y124.084 E2.6961
G1 X114.945 Y124.082 E2.6964
G1 X114.684 Y124.013 E2.7088
G1 X114.677 Y124.010 E2.7092
G1 X113.183 Y123.503 E2.7816
G1 X113.175 Y123.500 E2.7820
G1 X112.926 Y123.397 E2.7943
G1 X112.919 Y123.394 E2.7947
G1 X111.504 Y122.696 E2.8671
G1 X111.497 Y122.692 E2.8675
G1 X111.263 Y122.558 E2.8799
G1 X111.257 Y122.553 E2.8802
G1 X109.945 Y121.677 E2.9526
G1 X109.938 Y121.672 E2.9530
G1 X109.724 Y121.508 E2.9654
G1 X109.718 Y121.503 E2.9657
G1 X108.532 Y120.463 E3.0382
G1 X108.526 Y120.457 E3.0385
G1 X108.335 Y120.267 E3.0509
G1 X108.330 Y120.261 E3.0513
G1 X107.290 Y119.075 E3.1237
G1 X107.285 Y119.069 E3.1240
G1 X107.121 Y118.855 E3.1364
G1 X107.116 Y118.848 E3.1368
G1 X106.239 Y117.536 E3.2092
G1 X106.235 Y117.530 E3.2096
G1 X106.100 Y117.296 E3.2219
G1 X106.097 Y117.289 E3.2223
G1 X105.399 Y115.874 E3.2947
G1 X105.396 Y115.867 E3.2951
G1 X105.292 Y115.618 E3.3075
G1 X105.290 Y115.610 E3.3078
G1 X104.782 Y114.116 E3.3802
G1 X104.780 Y114.109 E3.3806
G1 X104.710 Y113.848 E3.3930
G1 X104.709 Y113.840 E3.3934
G1 X104.401 Y112.293 E3.4658
G1 X104.399 Y112.285 E3.4661
G1 X104.364 Y112.018 E3.4785
G1 X104.363 Y112.010 E3.4789
G1 X104.265 Y110.503 E3.5482
G1 X104.264 Y110.499 E3.5484
G1 X104.260 Y110.364 E3.5546
G1 X104.260 Y110.360 E3.5547
G1 X104.260 Y98.988 E4.0767
G1 X104.260 Y98.588 F1260
G1 X97.740 Y98.588 F6000
G92 E0
G1 X97.740 Y111.997 E0.6155 F1260
G1 X97.703 Y112.086 E0.6199
G1 X95.293 Y114.496 E0.7763
G1 X95.205 Y114.533 E0.7807
G1 X89.795 Y114.533 E1.0290
G1 X89.707 Y114.496 E1.0334
G1 X87.297 Y112.086 E1.1898
G1 X87.260 Y111.997 E1.1942
G1 X87.260 Y98.588 E1.8097
G1 X87.297 Y98.500 E1.8141
G1 X89.707 Y96.089 E1.9706
G1 X89.795 Y96.053 E1.9749
G1 X95.205 Y96.053 E2.2232
G1 X95.293 Y96.089 E2.2276
G1 X97.488 Y98.285 E2.3701
G1 X97.703 Y98.500 F1260
G1 X97.740 Y98.588 F1260
G92 E0
G1 E-8.0000 F1800
; outer perimeter
G1 X93.230 Y100.563 F6000
G1 X93.230 Y100.566 F6000
G1 X93.224 Y100.569 F6000
G1 E0.0000 F1800
G92 E0
G1 X93.224 Y110.017 E0.4337 F630
G1 X91.776 Y110.017 E0.5001
G1 X91.776 Y100.569 E0.9338
G1 X92.824 Y100.569 E0.9819
G1 X93.224 Y100.569 F630
G1 X93.224 Y110.017 F4200
G1 X91.776 Y110.017 F4200
G1 X91.776 Y102.246 F4200
; gap fill
G1 X92.374 Y100.961 F6000
G92 E0
G1 X92.832 Y101.419 E0.0298 F1008
G1 X92.832 Y102.200 E0.0656
G1 X92.168 Y101.536 E0.1087
G1 X92.168 Y102.316 E0.1445
G1 X92.832 Y102.980 E0.1876
G1 X92.832 Y103.761 E0.2235
G1 X92.168 Y103.097 E0.2666
G1 X92.168 Y103.878 E0.3024
G1 X92.832 Y104.542 E0.3455
G1 X92.832 Y105.322 E0.3814
G1 X92.168 Y104.658 E0.4245
G1 X92.168 Y105.439 E0.4603
G1 X92.832 Y106.103 E0.5034
G1 X92.832 Y106.884 E0.5392
G1 X92.168 Y106.220 E0.5824
G1 X92.168 Y107.000 E0.6182
G1 X92.832 Y107.664 E0.6613
G1 X92.832 Y108.445 E0.6971
G1 X92.168 Y107.781 E0.7402
G1 X92.168 Y108.561 E0.7761
G1 X92.832 Y109.226 E0.8192
G1 X92.832 Y109.625 E0.8375
G1 X92.451 Y109.625 E0.8550
G1 X92.451 Y109.625 F1008
G1 X92.168 Y109.342 F1008
G92 E0
G1 E-8.0000 F1800
; inner perimeter
G1 X109.880 Y110.248 F6000
G1 E0.0000 F1800
G92 E0
G1 X109.880 Y101.673 E0.3936 F945
G1 X122.210 Y101.673 E0.9595
G1 X122.210 Y112.245 E1.4447
G1 X116.743 Y118.710 E1.8334
G1 X116.270 Y118.616 E1.8555
G1 X115.202 Y118.254 E1.9073
G1 X114.192 Y117.755 E1.9590
G1 X113.254 Y117.129 E2.0107
G1 X112.407 Y116.386 E2.0625
G1 X111.664 Y115.539 E2.1142
G1 X111.037 Y114.601 E2.1660
G1 X110.539 Y113.590 E2.2177
G1 X110.177 Y112.523 E2.2694
G1 X109.957 Y111.418 E2.3212
G1 X109.906 Y110.647 E2.3566
G1 X109.880 Y110.248 F945
G1 X109.328 Y110.266 F6000
G92 E0
G1 X109.328 Y101.121 E0.4197 F945
G1 X122.762 Y101.121 E1.0363
G1 X122.762 Y112.447 E1.5562
G1 X116.955 Y119.315 E1.9690
G1 X116.127 Y119.151 E2.0078
G1 X114.991 Y118.765 E2.0628
G1 X113.915 Y118.234 E2.1179
G1 X112.917 Y117.568 E2.1730
G1 X112.016 Y116.777 E2.2280
G1 X111.225 Y115.875 E2.2831
G1 X110.558 Y114.878 E2.3381
G1 X110.028 Y113.802 E2.3932
G1 X109.642 Y112.666 E2.4482
G1 X109.408 Y111.490 E2.5033
G1 X109.354 Y110.665 E2.5412
G1 X109.328 Y110.266 F945
; outer perimeter
G1 X108.776 Y110.284 F6000
G92 E0
G1 X108.776 Y100.569 E0.4459 F630
G1 X123.314 Y100.569 E1.1132
G1 X123.314 Y112.649 E1.6676
G1 X117.166 Y119.920 E2.1047
G1 X115.983 Y119.685 E2.1600
G1 X114.779 Y119.276 E2.2184
G1 X113.638 Y118.713 E2.2768
G1 X112.581 Y118.007 E2.3352
G1 X111.624 Y117.168 E2.3936
G1 X110.786 Y116.212 E2.4519
G1 X110.079 Y115.155 E2.5103
G1 X109.517 Y114.014 E2.5687
G1 X109.108 Y112.809 E2.6271
G1 X108.860 Y111.562 E2.6854
G1 X108.802 Y110.683 E2.7259
G1 X108.776 Y110.284 F630
G1 X108.776 Y100.569 F4200
G1 X117.728 Y100.569 F4200
; solid layer
G1 X121.575 Y102.059 F6000
G92 E0
G1 X121.824 Y102.307 E0.0161 F1008
G1 X121.824 Y103.088 E0.0519
G1 X120.795 Y102.059 E0.1187
G1 X120.014 Y102.059 E0.1546
G1 X121.824 Y103.869 E0.2720
G1 X121.824 Y104.649 E0.3079
G1 X119.233 Y102.059 E0.4760
G1 X118.453 Y102.059 E0.5118
G1 X121.824 Y105.430 E0.7306
G1 X121.824 Y106.211 E0.7665
G1 X117.672 Y102.059 E1.0359
G1 X116.891 Y102.059 E1.0718
G1 X121.824 Y106.991 E1.3919
G1 X121.824 Y107.772 E1.4277
G1 X116.111 Y102.059 E1.7986
G1 X115.330 Y102.059 E1.8344
G1 X121.824 Y108.553 E2.2559
G1 X121.824 Y109.333 E2.2917
G1 X114.550 Y102.059 E2.7639
G1 X113.769 Y102.059 E2.7997
G1 X121.824 Y110.114 E3.3226
G1 X121.824 Y110.895 E3.3584
G1 X112.988 Y102.059 E3.9319
G1 X112.208 Y102.059 E3.9677
G1 X121.824 Y111.675 E4.5919
G1 X121.824 Y112.103 E4.6116
G1 X121.662 Y112.294 E4.6231
G1 X111.427 Y102.059 E5.2874
G1 X110.646 Y102.059 E5.3233
G1 X121.304 Y112.717 E6.0151
G1 X120.947 Y113.140 E6.0405
G1 X110.266 Y102.460 E6.7338
G1 X110.266 Y103.241 E6.7696
G1 X120.589 Y113.563 E7.4396
G1 X120.231 Y113.986 E7.4651
G1 X110.266 Y104.021 E8.1119
G1 X110.266 Y104.802 E8.1477
G1 X119.874 Y114.409 E8.7714
G1 X119.516 Y114.832 E8.7968
G1 X110.266 Y105.583 E9.3972
G1 X110.266 Y106.363 E9.4330
G1 X119.158 Y115.255 E10.0102
G1 X118.801 Y115.678 E10.0356
G1 X110.266 Y107.144 E10.5896
G1 X110.266 Y107.924 E10.6255
G1 X118.443 Y116.101 E11.1562
G1 X118.086 Y116.524 E11.1816
G1 X110.266 Y108.705 E11.6892
G1 X110.266 Y109.486 E11.7250
G1 X117.728 Y116.947 E12.2093
