; G-Code generated by Simplify3D(R) Version 4.0.0
; Aug 27, 2018 at 9:16:27 PM
; Settings Summary
;   processName,Process1
;   applyToModels,Retraction
;   profileName,Ender 3 (modified)
;   profileVersion,2018-08-24 07:43:03
;   baseProfile,Default (modified)
;   printMaterial,PLA
;   printQuality,Medium
;   printExtruders,
;   extruderName,Primary Extruder
;   extruderToolheadNumber,0
;   extruderDiameter,0.4
;   extruderAutoWidth,1
;   extruderWidth,0.48
;   extrusionMultiplier,0.93
;   extruderUseRetract,1
;   extruderRetractionDistance,0
;   extruderExtraRestartDistance,0
;   extruderRetractionZLift,0
;   extruderRetractionSpeed,1800
;   extruderUseCoasting,1
;   extruderCoastingDistance,0.4
;   extruderUseWipe,0
;   extruderWipeDistance,5
;   primaryExtruder,0
;   layerHeight,0.2
;   topSolidLayers,4
;   bottomSolidLayers,4
;   perimeterOutlines,3
;   printPerimetersInsideOut,1
;   startPointOption,2
;   startPointOriginX,0
;   startPointOriginY,0
;   sequentialIslands,0
;   spiralVaseMode,0
;   firstLayerHeightPercentage,90
;   firstLayerWidthPercentage,115
;   firstLayerUnderspeed,0.3
;   useRaft,0
;   raftExtruder,0
;   raftTopLayers,3
;   raftBaseLayers,2
;   raftOffset,3
;   raftSeparationDistance,0.14
;   raftTopInfill,100
;   aboveRaftSpeedMultiplier,0.3
;   useSkirt,1
;   skirtExtruder,0
;   skirtLayers,1
;   skirtOutlines,2
;   skirtOffset,4
;   usePrimePillar,0
;   primePillarExtruder,999
;   primePillarWidth,12
;   primePillarLocation,7
;   primePillarSpeedMultiplier,1
;   useOozeShield,0
;   oozeShieldExtruder,999
;   oozeShieldOffset,2
;   oozeShieldOutlines,1
;   oozeShieldSidewallShape,1
;   oozeShieldSidewallAngle,30
;   oozeShieldSpeedMultiplier,1
;   infillExtruder,0
;   internalInfillPattern,Rectilinear
;   externalInfillPattern,Rectilinear
;   infillPercentage,0
;   outlineOverlapPercentage,40
;   infillExtrusionWidthPercentage,110
;   minInfillLength,5
;   infillLayerInterval,1
;   internalInfillAngles,45,-45
;   overlapInternalInfillAngles,0
;   externalInfillAngles,45,-45
;   generateSupport,0
;   supportExtruder,0
;   supportInfillPercentage,30
;   supportExtraInflation,0
;   supportBaseLayers,1
;   denseSupportExtruder,0
;   denseSupportLayers,0
;   denseSupportInfillPercentage,70
;   supportLayerInterval,1
;   supportHorizontalPartOffset,0.3
;   supportUpperSeparationLayers,1
;   supportLowerSeparationLayers,1
;   supportType,0
;   supportGridSpacing,3
;   maxOverhangAngle,60
;   supportAngles,0
;   temperatureName,Primary Extruder,Bed
;   temperatureNumber,0,0
;   temperatureSetpointCount,1,1
;   temperatureSetpointLayers,1,1
;   temperatureSetpointTemperatures,210,60
;   temperatureStabilizeAtStartup,1,1
;   temperatureHeatedBed,0,1
;   temperatureRelayBetweenLayers,0,0
;   temperatureRelayBetweenLoops,0,0
;   fanLayers,1,2
;   fanSpeeds,0,80
;   blipFanToFullPower,0
;   adjustSpeedForCooling,1
;   minSpeedLayerTime,15
;   minCoolingSpeedSlowdown,20
;   increaseFanForCooling,1
;   minFanLayerTime,30
;   maxCoolingFanSpeed,100
;   increaseFanForBridging,0
;   bridgingFanSpeed,100
;   use5D,1
;   relativeEdistances,0
;   allowEaxisZeroing,1
;   independentExtruderAxes,0
;   includeM10123,0
;   stickySupport,1
;   applyToolheadOffsets,0
;   gcodeXoffset,0
;   gcodeYoffset,0
;   gcodeZoffset,0
;   overrideMachineDefinition,1
;   machineTypeOverride,0
;   strokeXoverride,220
;   strokeYoverride,220
;   strokeZoverride,250
;   originOffsetXoverride,0
;   originOffsetYoverride,0
;   originOffsetZoverride,0
;   homeXdirOverride,-1
;   homeYdirOverride,-1
;   homeZdirOverride,-1
;   flipXoverride,1
;   flipYoverride,-1
;   flipZoverride,1
;   toolheadOffsets,0,0|0,0|0,0|0,0|0,0|0,0
;   overrideFirmwareConfiguration,0
;   firmwareTypeOverride,RepRap (Marlin/Repetier/Sprinter)
;   GPXconfigOverride,r2
;   baudRateOverride,115200
;   overridePrinterModels,0
;   printerModelsOverride
;   startingGcode,G28 ; home all axes,G29; BLTOUCH mesh generation,G92 E0.0,G1 Z5;,G1 X10 Y10 Z0 F6000;,G1 X60.0 E9.0  F1000.0 ; intro line,G1 X100.0 E12.5  F1000.0 ; intro line,G92 E0.0
;   layerChangeGcode,G4 P1
;   retractionGcode,
;   toolChangeGcode,
;   endingGcode,G28 X0 Y0 ; home X axis and y axis,;G1 Z180 F300 ; lower platform to bottom,M104 S0 ; kill extruder temperature,M140 S0 ; kill bed temperature,M107; kill fan,M84 ; disable motors
;   exportFileFormat,gcode
;   celebration,0
;   celebrationSong,Random Song
;   postProcessing,curl -k -H "X-Api-Key: B48F0C35933E47C49712EE720641ACF0" -F "select=false" -F "print=false" -F "file=@[output_filepath]" "http://192.168.0.5/api/files/local" {STRIP "; postProcessing"}
;   defaultSpeed,4200
;   outlineUnderspeed,0.5
;   solidInfillUnderspeed,0.8
;   supportUnderspeed,0.8
;   rapidXYspeed,6000
;   rapidZspeed,1000
;   minBridgingArea,50
;   bridgingExtraInflation,0
;   bridgingExtrusionMultiplier,1
;   bridgingSpeedMultiplier,1
;   useFixedBridgingAngle,0
;   fixedBridgingAngle,0
;   applyBridgingToPerimeters,0
;   filamentDiameters,1.75|1.75|1.75|1.75|1.75|1.75
;   filamentPricesPerKg,46|46|46|46|46|46
;   filamentDensities,1.25|1.25|1.25|1.25|1.25|1.25
;   useMinPrintHeight,1
;   minPrintHeight,0
;   useMaxPrintHeight,1
;   maxPrintHeight,12
;   useDiaphragm,0
;   diaphragmLayerInterval,20
;   robustSlicing,1
;   mergeAllIntoSolid,0
;   onlyRetractWhenCrossingOutline,1
;   retractBetweenLayers,1
;   useRetractionMinTravel,0
;   retractionMinTravel,3
;   retractWhileWiping,1
;   onlyWipeOutlines,1
;   avoidCrossingOutline,1
;   maxMovementDetourFactor,20
;   toolChangeRetractionDistance,12
;   toolChangeExtraRestartDistance,-0.5
;   toolChangeRetractionSpeed,600
;   externalThinWallType,0
;   internalThinWallType,2
;   thinWallAllowedOverlapPercentage,10
;   singleExtrusionMinLength,1
;   singleExtrusionMinPrintingWidthPercentage,50
;   singleExtrusionMaxPrintingWidthPercentage,200
;   singleExtrusionEndpointExtension,0.2
;   horizontalSizeCompensation,0
G90
M82
M106 S0
M140 S60
M190 S60
M104 S210 T0
M109 S210 T0
G28 ; home all axes
G29; BLTOUCH mesh generation
G92 E0.0
G1 Z5;
G1 X10 Y10 Z0 F6000;
G1 X60.0 E9.0  F1000.0 ; intro line
G1 X100.0 E12.5  F1000.0 ; intro line
G92 E0.0
G1 Z0.180 F1000
; process Process1
; layer 1, Z = 0.180
G4 P1
T0
; tool H0.200 W0.552
; skirt
G1 X97.890 Y87.935 F6000
G92 E0
G1 X100.435 Y85.390 E0.1537 F1260
G1 X100.700 Y85.280 E0.1659
G1 X119.300 Y85.280 E0.9599
G1 X119.565 Y85.390 E0.9721
G1 X122.110 Y87.935 E1.1258
G1 X122.220 Y88.200 E1.1380
G1 X122.220 Y131.800 E2.9991
G1 X122.110 Y132.065 E3.0113
G1 X119.565 Y134.610 E3.1650
G1 X119.300 Y134.720 E3.1772
G1 X100.700 Y134.720 E3.9712
G1 X100.435 Y134.610 E3.9834
G1 X97.890 Y132.065 E4.1371
G1 X97.780 Y131.800 E4.1493
G1 X97.780 Y88.313 E6.0056
G1 X97.780 Y88.200 F1260
G1 X97.890 Y87.935 F1260
G1 X98.297 Y88.207 F6000
G92 E0
G1 X100.707 Y85.797 E0.1455 F1260
G1 X100.795 Y85.760 E0.1496
G1 X119.205 Y85.760 E0.9354
G1 X119.293 Y85.797 E0.9395
G1 X121.703 Y88.207 E1.0850
G1 X121.740 Y88.295 E1.0891
G1 X121.740 Y131.705 E2.9421
G1 X121.703 Y131.793 E2.9461
G1 X119.293 Y134.203 E3.0917
G1 X119.205 Y134.240 E3.0957
G1 X100.795 Y134.240 E3.8815
G1 X100.707 Y134.203 E3.8856
G1 X98.297 Y131.793 E4.0312
G1 X98.260 Y131.705 E4.0352
G1 X98.260 Y88.600 E5.8752
G1 X98.260 Y88.295 F1260
G1 X98.297 Y88.207 F1260
; inner perimeter
G1 X102.770 Y90.270 F6000
G1 X102.770 Y90.750 F6000
G1 X103.880 Y91.380 F6000
G92 E0
G1 X116.120 Y91.380 E0.5225 F945
G1 X116.120 Y128.620 E2.1121
G1 X103.880 Y128.620 E2.6346
G1 X103.880 Y91.780 E4.2071
G1 X103.880 Y91.380 F945
G1 X103.328 Y90.828 F6000
G92 E0
G1 X116.672 Y90.828 E0.5696 F945
G1 X116.672 Y129.172 E2.2064
G1 X103.328 Y129.172 E2.7760
G1 X103.328 Y91.228 E4.3956
G1 X103.328 Y90.828 F945
; outer perimeter
G1 X102.776 Y90.276 F6000
G92 E0
G1 X117.224 Y90.276 E0.6167 F630
G1 X117.224 Y129.724 E2.3006
G1 X102.776 Y129.724 E2.9173
G1 X102.776 Y90.676 E4.5841
G1 X102.776 Y90.276 F630
; solid layer
G1 X115.131 Y91.711 F6000
G92 E0
G1 X115.789 Y92.369 E0.0397 F1008
G1 X115.789 Y93.150 E0.0731
G1 X114.350 Y91.711 E0.1599
G1 X113.569 Y91.711 E0.1932
G1 X115.789 Y93.931 E0.3272
G1 X115.789 Y94.711 E0.3605
G1 X112.789 Y91.711 E0.5417
G1 X112.008 Y91.711 E0.5750
G1 X115.789 Y95.492 E0.8032
G1 X115.789 Y96.273 E0.8365
G1 X111.227 Y91.711 E1.1119
G1 X110.447 Y91.711 E1.1452
G1 X115.789 Y97.053 E1.4677
G1 X115.789 Y97.834 E1.5010
G1 X109.666 Y91.711 E1.8706
G1 X108.885 Y91.711 E1.9040
G1 X115.789 Y98.615 E2.3207
G1 X115.789 Y99.395 E2.3540
G1 X108.105 Y91.711 E2.8179
G1 X107.324 Y91.711 E2.8512
G1 X115.789 Y100.176 E3.3622
G1 X115.789 Y100.957 E3.3955
G1 X106.543 Y91.711 E3.9536
G1 X105.763 Y91.711 E3.9870
G1 X115.789 Y101.737 E4.5922
G1 X115.789 Y102.518 E4.6255
G1 X104.982 Y91.711 E5.2779
G1 X104.211 Y91.711 E5.3108
G1 X104.211 Y91.721 E5.3112
G1 X115.789 Y103.298 E6.0101
G1 X115.789 Y104.079 E6.0434
G1 X104.211 Y92.502 E6.7424
G1 X104.211 Y93.282 E6.7757
G1 X115.789 Y104.860 E7.4746
G1 X115.789 Y105.640 E7.5079
G1 X104.211 Y94.063 E8.2068
G1 X104.211 Y94.843 E8.2401
G1 X115.789 Y106.421 E8.9390
G1 X115.789 Y107.202 E8.9724
G1 X104.211 Y95.624 E9.6713
G1 X104.211 Y96.405 E9.7046
G1 X115.789 Y107.982 E10.4035
G1 X115.789 Y108.763 E10.4368
G1 X104.211 Y97.185 E11.1357
G1 X104.211 Y97.966 E11.1691
G1 X115.789 Y109.544 E11.8680
G1 X115.789 Y110.324 E11.9013
G1 X104.211 Y98.747 E12.6002
G1 X104.211 Y99.527 E12.6335
G1 X115.789 Y111.105 E13.3324
G1 X115.789 Y111.886 E13.3657
G1 X104.211 Y100.308 E14.0647
G1 X104.211 Y101.089 E14.0980
G1 X115.789 Y112.666 E14.7969
G1 X115.789 Y113.447 E14.8302
G1 X104.211 Y101.869 E15.5291
G1 X104.211 Y102.650 E15.5624
G1 X115.789 Y114.227 E16.2613
G1 X115.789 Y115.008 E16.2947
G1 X104.211 Y103.431 E16.9936
G1 X104.211 Y104.211 E17.0269
G1 X115.789 Y115.789 E17.7258
G1 X115.789 Y116.569 E17.7591
G1 X104.211 Y104.992 E18.4580
G1 X104.211 Y105.772 E18.4914
G1 X115.789 Y117.350 E19.1903
G1 X115.789 Y118.131 E19.2236
G1 X104.211 Y106.553 E19.9225
G1 X104.211 Y107.334 E19.9558
G1 X115.789 Y118.911 E20.6547
G1 X115.789 Y119.692 E20.6880
G1 X104.211 Y108.114 E21.3870
G1 X104.211 Y108.895 E21.4203
G1 X115.789 Y120.473 E22.1192
G1 X115.789 Y121.253 E22.1525
G1 X104.211 Y109.676 E22.8514
G1 X104.211 Y110.456 E22.8847
G1 X115.789 Y122.034 E23.5836
G1 X115.789 Y122.815 E23.6170
G1 X104.211 Y111.237 E24.3159
G1 X104.211 Y112.018 E24.3492
G1 X115.789 Y123.595 E25.0481
G1 X115.789 Y124.376 E25.0814
G1 X104.211 Y112.798 E25.7803
G1 X104.211 Y113.579 E25.8137
G1 X115.789 Y125.157 E26.5126
G1 X115.789 Y125.937 E26.5459
G1 X104.211 Y114.360 E27.2448
G1 X104.211 Y115.140 E27.2781
G1 X115.789 Y126.718 E27.9770
G1 X115.789 Y127.498 E28.0103
G1 X104.211 Y115.921 E28.7093
G1 X104.211 Y116.702 E28.7426
G1 X115.789 Y128.279 E29.4415
G1 X115.789 Y128.289 E29.4419
G1 X115.018 Y128.289 E29.4748
G1 X104.211 Y117.482 E30.1272
G1 X104.211 Y118.263 E30.1605
G1 X114.237 Y128.289 E30.7657
G1 X113.457 Y128.289 E30.7991
G1 X104.211 Y119.043 E31.3572
G1 X104.211 Y119.824 E31.3905
G1 X112.676 Y128.289 E31.9015
G1 X111.895 Y128.289 E31.9348
G1 X104.211 Y120.605 E32.3987
G1 X104.211 Y121.385 E32.4320
G1 X111.115 Y128.289 E32.8487
G1 X110.334 Y128.289 E32.8821
G1 X104.211 Y122.166 E33.2517
G1 X104.211 Y122.947 E33.2850
G1 X109.553 Y128.289 E33.6075
G1 X108.773 Y128.289 E33.6408
G1 X104.211 Y123.727 E33.9162
G1 X104.211 Y124.508 E33.9495
G1 X107.992 Y128.289 E34.1777
G1 X107.211 Y128.289 E34.2110
G1 X104.211 Y125.289 E34.3922
G1 X104.211 Y126.069 E34.4255
G1 X106.431 Y128.289 E34.5595
G1 X105.650 Y128.289 E34.5928
G1 X104.211 Y126.850 E34.6797
G1 X104.211 Y127.631 E34.7130
G1 X104.587 Y128.006 E34.7356
G1 X104.869 Y128.289 F1008
; layer 2, Z = 0.380
M106 S211
G4 P1
; tool H0.200 W0.480
; inner perimeter
G1 X103.700 Y128.800 F6000
G1 Z0.380 F1000
G92 E0
G1 X103.700 Y91.200 E1.3956 F3150
G1 X116.300 Y91.200 E1.8633
G1 X116.300 Y128.800 E3.2590
G1 X104.100 Y128.800 E3.7118
G1 X103.700 Y128.800 F3150
G1 X103.220 Y129.280 F6000
G92 E0
G1 X103.220 Y90.720 E1.4313 F3150
G1 X116.780 Y90.720 E1.9346
G1 X116.780 Y129.280 E3.3659
G1 X103.620 Y129.280 E3.8544
G1 X103.220 Y129.280 F3150
; outer perimeter
G1 X102.740 Y129.760 F6000
G92 E0
G1 X102.740 Y90.240 E1.4669 F2100
G1 X117.260 Y90.240 E2.0059
G1 X117.260 Y129.760 E3.4728
G1 X103.140 Y129.760 E3.9969
G1 X102.740 Y129.760 F2100
; solid layer
G1 X116.012 Y128.426 F6000
G92 E0
G1 X115.926 Y128.512 E0.0045 F3360
G1 X115.247 Y128.512 E0.0297
G1 X116.012 Y127.747 E0.0699
G1 X116.012 Y127.068 E0.0951
G1 X114.568 Y128.512 E0.1709
G1 X113.889 Y128.512 E0.1961
G1 X116.012 Y126.389 E0.3075
G1 X116.012 Y125.710 E0.3327
G1 X113.210 Y128.512 E0.4798
G1 X112.532 Y128.512 E0.5050
G1 X116.012 Y125.032 E0.6877
G1 X116.012 Y124.353 E0.7129
G1 X111.853 Y128.512 E0.9312
G1 X111.174 Y128.512 E0.9564
G1 X116.012 Y123.674 E1.2104
G1 X116.012 Y122.995 E1.2356
G1 X110.495 Y128.512 E1.5252
G1 X109.816 Y128.512 E1.5504
G1 X116.012 Y122.316 E1.8756
G1 X116.012 Y121.637 E1.9008
G1 X109.137 Y128.512 E2.2617
G1 X108.459 Y128.512 E2.2869
G1 X116.012 Y120.959 E2.6834
G1 X116.012 Y120.280 E2.7086
G1 X107.780 Y128.512 E3.1407
G1 X107.101 Y128.512 E3.1659
G1 X116.012 Y119.601 E3.6337
G1 X116.012 Y118.922 E3.6589
G1 X106.422 Y128.512 E4.1623
G1 X105.743 Y128.512 E4.1875
G1 X116.012 Y118.243 E4.7265
G1 X116.012 Y117.564 E4.7517
G1 X105.064 Y128.512 E5.3264
G1 X104.386 Y128.512 E5.3516
G1 X116.012 Y116.886 E5.9619
G1 X116.012 Y116.207 E5.9871
G1 X103.988 Y128.231 E6.6183
G1 X103.988 Y127.552 E6.6435
G1 X116.012 Y115.528 E7.2746
G1 X116.012 Y114.849 E7.2998
G1 X103.988 Y126.873 E7.9310
G1 X103.988 Y126.194 E7.9562
G1 X116.012 Y114.170 E8.5874
G1 X116.012 Y113.492 E8.6126
G1 X103.988 Y125.516 E9.2438
G1 X103.988 Y124.837 E9.2690
G1 X116.012 Y112.813 E9.9001
G1 X116.012 Y112.134 E9.9253
G1 X103.988 Y124.158 E10.5565
G1 X103.988 Y123.479 E10.5817
G1 X116.012 Y111.455 E11.2129
G1 X116.012 Y110.776 E11.2381
G1 X103.988 Y122.800 E11.8693
G1 X103.988 Y122.121 E11.8945
G1 X116.012 Y110.097 E12.5256
G1 X116.012 Y109.419 E12.5508
G1 X103.988 Y121.443 E13.1820
G1 X103.988 Y120.764 E13.2072
G1 X116.012 Y108.740 E13.8384
G1 X116.012 Y108.061 E13.8636
G1 X103.988 Y120.085 E14.4948
G1 X103.988 Y119.406 E14.5200
G1 X116.012 Y107.382 E15.1511
G1 X116.012 Y106.703 E15.1763
G1 X103.988 Y118.727 E15.8075
G1 X103.988 Y118.048 E15.8327
G1 X116.012 Y106.024 E16.4639
G1 X116.012 Y105.346 E16.4891
G1 X103.988 Y117.370 E17.1203
G1 X103.988 Y116.691 E17.1455
G1 X116.012 Y104.667 E17.7766
G1 X116.012 Y103.988 E17.8018
G1 X103.988 Y116.012 E18.4330
G1 X103.988 Y115.333 E18.4582
G1 X116.012 Y103.309 E19.0894
G1 X116.012 Y102.630 E19.1146
G1 X103.988 Y114.654 E19.7458
G1 X103.988 Y113.976 E19.7710
G1 X116.012 Y101.952 E20.4021
G1 X116.012 Y101.273 E20.4273
G1 X103.988 Y113.297 E21.0585
G1 X103.988 Y112.618 E21.0837
G1 X116.012 Y100.594 E21.7149
G1 X116.012 Y99.915 E21.7401
G1 X103.988 Y111.939 E22.3713
G1 X103.988 Y111.260 E22.3965
G1 X116.012 Y99.236 E23.0276
G1 X116.012 Y98.557 E23.0528
G1 X103.988 Y110.581 E23.6840
G1 X103.988 Y109.903 E23.7092
G1 X116.012 Y97.879 E24.3404
G1 X116.012 Y97.200 E24.3656
G1 X103.988 Y109.224 E24.9968
G1 X103.988 Y108.545 E25.0220
G1 X116.012 Y96.521 E25.6531
G1 X116.012 Y95.842 E25.6783
G1 X103.988 Y107.866 E26.3095
G1 X103.988 Y107.187 E26.3347
G1 X116.012 Y95.163 E26.9659
G1 X116.012 Y94.485 E26.9911
G1 X103.988 Y106.509 E27.6223
G1 X103.988 Y105.830 E27.6475
G1 X116.012 Y93.806 E28.2786
G1 X116.012 Y93.127 E28.3038
G1 X103.988 Y105.151 E28.9350
G1 X103.988 Y104.472 E28.9602
G1 X116.012 Y92.448 E29.5914
