; G-Code generated by Simplify3D(R) Version 4.0.0
; Sep 1, 2018 at 9:21:28 PM
; Settings Summary
;   processName,Process1
;   applyToModels,Teaching Tech speed test
;   profileName,Ender 3 (modified)
;   profileVersion,2018-08-28 20:59:00
;   baseProfile,Default (modified)
;   printMaterial,PLA
;   printQuality,Medium
;   printExtruders,
;   extruderName,Primary Extruder
;   extruderToolheadNumber,0
;   extruderDiameter,0.4
;   extruderAutoWidth,1
;   extruderWidth,0.48
;   extrusionMultiplier,0.95
;   extruderUseRetract,1
;   extruderRetractionDistance,4
;   extruderExtraRestartDistance,0
;   extruderRetractionZLift,0
;   extruderRetractionSpeed,1800
;   extruderUseCoasting,1
;   extruderCoastingDistance,0.4
;   extruderUseWipe,0
;   extruderWipeDistance,5
;   primaryExtruder,0
;   layerHeight,0.2
;   topSolidLayers,0
;   bottomSolidLayers,0
;   perimeterOutlines,3
;   printPerimetersInsideOut,1
;   startPointOption,2
;   startPointOriginX,0
;   startPointOriginY,0
;   sequentialIslands,0
;   spiralVaseMode,0
;   firstLayerHeightPercentage,90
;   firstLayerWidthPercentage,120
;   firstLayerUnderspeed,0.3
;   useRaft,0
;   raftExtruder,0
;   raftTopLayers,3
;   raftBaseLayers,2
;   raftOffset,3
;   raftSeparationDistance,0.14
;   raftTopInfill,100
;   aboveRaftSpeedMultiplier,0.3
;   useSkirt,1
;   skirtExtruder,0
;   skirtLayers,1
;   skirtOutlines,2
;   skirtOffset,4
;   usePrimePillar,0
;   primePillarExtruder,999
;   primePillarWidth,12
;   primePillarLocation,7
;   primePillarSpeedMultiplier,1
;   useOozeShield,0
;   oozeShieldExtruder,999
;   oozeShieldOffset,2
;   oozeShieldOutlines,1
;   oozeShieldSidewallShape,1
;   oozeShieldSidewallAngle,30
;   oozeShieldSpeedMultiplier,1
;   infillExtruder,0
;   internalInfillPattern,Rectilinear
;   externalInfillPattern,Rectilinear
;   infillPercentage,0
;   outlineOverlapPercentage,40
;   infillExtrusionWidthPercentage,125
;   minInfillLength,5
;   infillLayerInterval,1
;   internalInfillAngles,45,-45
;   overlapInternalInfillAngles,0
;   externalInfillAngles,45,-45
;   generateSupport,0
;   supportExtruder,0
;   supportInfillPercentage,30
;   supportExtraInflation,0
;   supportBaseLayers,1
;   denseSupportExtruder,0
;   denseSupportLayers,0
;   denseSupportInfillPercentage,70
;   supportLayerInterval,1
;   supportHorizontalPartOffset,0.3
;   supportUpperSeparationLayers,1
;   supportLowerSeparationLayers,1
;   supportType,0
;   supportGridSpacing,3
;   maxOverhangAngle,60
;   supportAngles,0
;   temperatureName,Primary Extruder,Bed
;   temperatureNumber,0,0
;   temperatureSetpointCount,1,1
;   temperatureSetpointLayers,1,1
;   temperatureSetpointTemperatures,210,60
;   temperatureStabilizeAtStartup,1,1
;   temperatureHeatedBed,0,1
;   temperatureRelayBetweenLayers,0,0
;   temperatureRelayBetweenLoops,0,0
;   fanLayers,1,2
;   fanSpeeds,0,80
;   blipFanToFullPower,0
;   adjustSpeedForCooling,0
;   minSpeedLayerTime,15
;   minCoolingSpeedSlowdown,20
;   increaseFanForCooling,1
;   minFanLayerTime,30
;   maxCoolingFanSpeed,100
;   increaseFanForBridging,0
;   bridgingFanSpeed,100
;   use5D,1
;   relativeEdistances,0
;   allowEaxisZeroing,1
;   independentExtruderAxes,0
;   includeM10123,0
;   stickySupport,1
;   applyToolheadOffsets,0
;   gcodeXoffset,0
;   gcodeYoffset,0
;   gcodeZoffset,0
;   overrideMachineDefinition,1
;   machineTypeOverride,0
;   strokeXoverride,220
;   strokeYoverride,220
;   strokeZoverride,250
;   originOffsetXoverride,0
;   originOffsetYoverride,0
;   originOffsetZoverride,0
;   homeXdirOverride,-1
;   homeYdirOverride,-1
;   homeZdirOverride,-1
;   flipXoverride,1
;   flipYoverride,-1
;   flipZoverride,1
;   toolheadOffsets,0,0|0,0|0,0|0,0|0,0|0,0
;   overrideFirmwareConfiguration,0
;   firmwareTypeOverride,RepRap (Marlin/Repetier/Sprinter)
;   GPXconfigOverride,r2
;   baudRateOverride,115200
;   overridePrinterModels,0
;   printerModelsOverride
;   startingGcode,G28 ; home all axes,G29; BLTOUCH mesh generation,G92 E0.0,G1 Z5;,G1 X10 Y10 Z0 F6000;,G1 X60.0 E9.0  F1000.0 ; intro line,G1 X100.0 E12.5  F1000.0 ; intro line,G92 E0.0
;   layerChangeGcode,G4 P1
;   retractionGcode,
;   toolChangeGcode,
;   endingGcode,G28 X0 Y0 ; home X axis and y axis,;G1 Z180 F300 ; lower platform to bottom,M104 S0 ; kill extruder temperature,M140 S0 ; kill bed temperature,M107; kill fan,M84 ; disable motors
;   exportFileFormat,gcode
;   celebration,0
;   celebrationSong,Random Song
;   postProcessing,curl -k -H "X-Api-Key: B48F0C35933E47C49712EE720641ACF0" -F "select=false" -F "print=false" -F "file=@[output_filepath]" "http://192.168.0.5/api/files/local" {STRIP "; postProcessing"}
;   defaultSpeed,3000
;   outlineUnderspeed,0.5
;   solidInfillUnderspeed,0.8
;   supportUnderspeed,0.8
;   rapidXYspeed,6000
;   rapidZspeed,1002
;   minBridgingArea,50
;   bridgingExtraInflation,0
;   bridgingExtrusionMultiplier,1
;   bridgingSpeedMultiplier,1
;   useFixedBridgingAngle,0
;   fixedBridgingAngle,0
;   applyBridgingToPerimeters,0
;   filamentDiameters,1.75|1.75|1.75|1.75|1.75|1.75
;   filamentPricesPerKg,46|46|46|46|46|46
;   filamentDensities,1.25|1.25|1.25|1.25|1.25|1.25
;   useMinPrintHeight,1
;   minPrintHeight,0
;   useMaxPrintHeight,1
;   maxPrintHeight,5
;   useDiaphragm,0
;   diaphragmLayerInterval,20
;   robustSlicing,1
;   mergeAllIntoSolid,0
;   onlyRetractWhenCrossingOutline,1
;   retractBetweenLayers,1
;   useRetractionMinTravel,0
;   retractionMinTravel,3
;   retractWhileWiping,1
;   onlyWipeOutlines,1
;   avoidCrossingOutline,1
;   maxMovementDetourFactor,20
;   toolChangeRetractionDistance,12
;   toolChangeExtraRestartDistance,-0.5
;   toolChangeRetractionSpeed,600
;   externalThinWallType,0
;   internalThinWallType,2
;   thinWallAllowedOverlapPercentage,10
;   singleExtrusionMinLength,1
;   singleExtrusionMinPrintingWidthPercentage,50
;   singleExtrusionMaxPrintingWidthPercentage,200
;   singleExtrusionEndpointExtension,0.2
;   horizontalSizeCompensation,0
G90
M82
M106 S0
M140 S60
M190 S60
M104 S210 T0
M109 S210 T0
G28 ; home all axes
G92 E0.0
G1 Z5;
G1 X10 Y10 Z0 F6000;
G1 X60.0 E9.0  F1000.0 ; intro line
G1 X100.0 E12.5  F1000.0 ; intro line
G92 E0.0
G92 E0
G1 E-4.0000 F1800
G1 Z0.180 F1002
; process Process1
; layer 1, Z = 0.180
G4 P1
T0
; tool H0.200 W0.576
; skirt
G1 X85.435 Y90.390 F6000
G1 E0.0000 F540
G92 E0
G1 X85.700 Y90.280 E0.0130 F900
G1 X114.329 Y90.280 E1.3156
G1 X114.353 Y90.274 E1.3168
G1 X118.267 Y90.295 E1.4949
G1 X118.281 Y90.295 E1.4955
G1 X118.459 Y90.303 E1.5036
G1 X118.474 Y90.304 E1.5043
G1 X119.938 Y90.432 E1.5712
G1 X119.949 Y90.433 E1.5717
G1 X120.091 Y90.451 E1.5782
G1 X120.103 Y90.452 E1.5787
G1 X120.891 Y90.573 E1.6150
G1 X120.902 Y90.575 E1.6155
G1 X121.043 Y90.602 E1.6220
G1 X121.054 Y90.604 E1.6226
G1 X122.494 Y90.923 E1.6897
G1 X122.509 Y90.927 E1.6904
G1 X122.693 Y90.976 E1.6990
G1 X122.708 Y90.980 E1.6998
G1 X124.138 Y91.431 E1.7680
G1 X124.153 Y91.436 E1.7687
G1 X124.332 Y91.501 E1.7773
G1 X124.346 Y91.507 E1.7780
G1 X125.731 Y92.080 E1.8462
G1 X125.746 Y92.086 E1.8470
G1 X125.918 Y92.167 E1.8556
G1 X125.932 Y92.174 E1.8563
G1 X127.262 Y92.866 E1.9245
G1 X127.275 Y92.873 E1.9252
G1 X127.440 Y92.968 E1.9339
G1 X127.454 Y92.976 E1.9346
G1 X128.718 Y93.782 E2.0028
G1 X128.731 Y93.790 E2.0035
G1 X128.887 Y93.899 E2.0122
G1 X128.899 Y93.909 E2.0129
G1 X130.070 Y94.806 E2.0800
G1 X130.079 Y94.814 E2.0805
G1 X130.189 Y94.904 E2.0870
G1 X130.198 Y94.912 E2.0876
G1 X130.798 Y95.437 E2.1238
G1 X130.806 Y95.445 E2.1244
G1 X130.911 Y95.543 E2.1309
G1 X130.919 Y95.551 E2.1314
G1 X131.962 Y96.594 E2.1985
G1 X131.973 Y96.605 E2.1992
G1 X132.102 Y96.746 E2.2079
G1 X132.112 Y96.757 E2.2086
G1 X133.060 Y97.887 E2.2757
G1 X133.068 Y97.896 E2.2763
G1 X133.156 Y98.009 E2.2827
G1 X133.163 Y98.018 E2.2833
G1 X133.634 Y98.661 E2.3196
G1 X133.641 Y98.670 E2.3201
G1 X133.722 Y98.788 E2.3266
G1 X133.728 Y98.798 E2.3271
G1 X134.521 Y100.042 E2.3942
G1 X134.529 Y100.055 E2.3950
G1 X134.624 Y100.220 E2.4036
G1 X134.632 Y100.234 E2.4043
G1 X135.324 Y101.563 E2.4725
G1 X135.331 Y101.577 E2.4732
G1 X135.411 Y101.750 E2.4819
G1 X135.418 Y101.764 E2.4826
G1 X135.992 Y103.149 E2.5508
G1 X135.997 Y103.163 E2.5515
G1 X136.062 Y103.342 E2.5602
G1 X136.067 Y103.357 E2.5609
G1 X136.518 Y104.787 E2.6291
G1 X136.523 Y104.802 E2.6298
G1 X136.572 Y104.986 E2.6385
G1 X136.576 Y105.001 E2.6392
G1 X136.895 Y106.441 E2.7063
G1 X136.897 Y106.452 E2.7068
G1 X136.924 Y106.592 E2.7133
G1 X136.926 Y106.604 E2.7138
G1 X137.047 Y107.392 E2.7501
G1 X137.049 Y107.404 E2.7507
G1 X137.066 Y107.545 E2.7572
G1 X137.067 Y107.557 E2.7577
G1 X137.196 Y109.027 E2.8248
G1 X137.197 Y109.042 E2.8255
G1 X137.205 Y109.232 E2.8342
G1 X137.206 Y109.248 E2.8349
G1 X137.206 Y110.747 E2.9031
G1 X137.205 Y110.762 E2.9038
G1 X137.197 Y110.952 E2.9125
G1 X137.196 Y110.968 E2.9132
G1 X137.068 Y112.438 E2.9803
G1 X137.067 Y112.449 E2.9808
G1 X137.049 Y112.591 E2.9873
G1 X137.048 Y112.603 E2.9879
G1 X136.927 Y113.391 E3.0241
G1 X136.925 Y113.403 E3.0247
G1 X136.898 Y113.543 E3.0312
G1 X136.896 Y113.554 E3.0317
G1 X136.577 Y114.994 E3.0988
G1 X136.573 Y115.009 E3.0995
G1 X136.524 Y115.193 E3.1082
G1 X136.520 Y115.208 E3.1089
G1 X136.069 Y116.638 E3.1771
G1 X136.064 Y116.653 E3.1778
G1 X135.999 Y116.832 E3.1865
G1 X135.993 Y116.846 E3.1872
G1 X135.429 Y118.209 E3.2543
G1 X135.424 Y118.220 E3.2548
G1 X135.366 Y118.350 E3.2613
G1 X135.361 Y118.360 E3.2618
G1 X135.008 Y119.075 E3.2981
G1 X135.003 Y119.086 E3.2986
G1 X134.935 Y119.212 E3.3051
G1 X134.930 Y119.222 E3.3057
G1 X134.204 Y120.479 E3.3717
G1 X134.198 Y120.489 E3.3723
G1 X134.123 Y120.610 E3.3787
G1 X134.116 Y120.620 E3.3793
G1 X133.674 Y121.283 E3.4156
G1 X133.667 Y121.293 E3.4161
G1 X133.584 Y121.409 E3.4226
G1 X133.577 Y121.418 E3.4231
G1 X132.694 Y122.570 E3.4891
G1 X132.686 Y122.579 E3.4897
G1 X132.596 Y122.689 E3.4962
G1 X132.588 Y122.698 E3.4967
G1 X132.063 Y123.298 E3.5330
G1 X132.055 Y123.306 E3.5335
G1 X131.957 Y123.411 E3.5400
G1 X131.949 Y123.419 E3.5405
G1 X130.906 Y124.462 E3.6077
G1 X130.895 Y124.473 E3.6084
G1 X130.754 Y124.602 E3.6170
G1 X130.742 Y124.612 E3.6178
G1 X129.594 Y125.576 E3.6860
G1 X129.582 Y125.585 E3.6867
G1 X129.431 Y125.701 E3.6953
G1 X129.419 Y125.710 E3.6960
G1 X128.211 Y126.557 E3.7631
G1 X128.201 Y126.563 E3.7637
G1 X128.081 Y126.641 E3.7702
G1 X128.071 Y126.648 E3.7707
G1 X127.410 Y127.049 E3.8059
G1 X127.403 Y127.053 E3.8063
G1 X127.321 Y127.101 E3.8106
G1 X127.314 Y127.104 E3.8109
G1 X126.636 Y127.476 E3.8461
G1 X126.626 Y127.482 E3.8467
G1 X126.499 Y127.546 E3.8532
G1 X126.488 Y127.552 E3.8537
G1 X125.151 Y128.175 E3.9208
G1 X125.137 Y128.181 E3.9215
G1 X124.961 Y128.254 E3.9302
G1 X124.946 Y128.260 E3.9309
G1 X123.560 Y128.765 E3.9980
G1 X123.549 Y128.769 E3.9985
G1 X123.413 Y128.813 E4.0051
G1 X123.402 Y128.817 E4.0056
G1 X122.637 Y129.040 E4.0419
G1 X122.626 Y129.043 E4.0424
G1 X122.487 Y129.078 E4.0489
G1 X122.476 Y129.081 E4.0494
G1 X121.059 Y129.395 E4.1154
G1 X121.048 Y129.397 E4.1160
G1 X120.908 Y129.424 E4.1225
G1 X120.896 Y129.426 E4.1230
G1 X120.108 Y129.547 E4.1593
G1 X120.096 Y129.549 E4.1598
G1 X119.955 Y129.566 E4.1663
G1 X119.943 Y129.567 E4.1668
G1 X118.479 Y129.695 E4.2337
G1 X118.464 Y129.696 E4.2344
G1 X118.286 Y129.705 E4.2425
G1 X118.271 Y129.705 E4.2432
G1 X114.353 Y129.726 E4.4215
G1 X114.329 Y129.720 E4.4226
G1 X85.700 Y129.720 E5.7252
G1 X85.435 Y129.610 E5.7382
G1 X82.890 Y127.065 E5.9020
G1 X82.780 Y126.800 E5.9151
G1 X82.780 Y93.200 E7.4439
G1 X82.890 Y92.935 E7.4569
G1 X85.152 Y90.672 E7.6025
G1 X85.435 Y90.390 F900
G1 X85.707 Y90.797 F6000
G92 E0
G1 X85.795 Y90.760 E0.0043 F900
G1 X90.603 Y90.760 E0.2231
G1 X90.655 Y90.774 E0.2255
G1 X90.706 Y90.760 E0.2279
G1 X114.294 Y90.760 E1.3012
G1 X114.346 Y90.774 E1.3036
G1 X114.352 Y90.770 E1.3040
G1 X114.413 Y90.754 E1.3068
G1 X118.259 Y90.775 E1.4818
G1 X118.264 Y90.775 E1.4821
G1 X118.432 Y90.783 E1.4897
G1 X118.437 Y90.783 E1.4899
G1 X119.892 Y90.910 E1.5564
G1 X119.896 Y90.910 E1.5566
G1 X120.030 Y90.927 E1.5627
G1 X120.034 Y90.927 E1.5629
G1 X120.814 Y91.047 E1.5988
G1 X120.818 Y91.048 E1.5990
G1 X120.950 Y91.073 E1.6051
G1 X120.954 Y91.073 E1.6053
G1 X122.385 Y91.390 E1.6720
G1 X122.390 Y91.392 E1.6722
G1 X122.564 Y91.438 E1.6804
G1 X122.569 Y91.440 E1.6806
G1 X123.989 Y91.887 E1.7484
G1 X123.994 Y91.889 E1.7486
G1 X124.163 Y91.950 E1.7568
G1 X124.167 Y91.952 E1.7570
G1 X125.543 Y92.522 E1.8247
G1 X125.547 Y92.524 E1.8250
G1 X125.710 Y92.600 E1.8332
G1 X125.715 Y92.602 E1.8334
G1 X127.035 Y93.289 E1.9011
G1 X127.040 Y93.291 E1.9014
G1 X127.196 Y93.381 E1.9095
G1 X127.200 Y93.384 E1.9098
G1 X128.456 Y94.184 E1.9775
G1 X128.460 Y94.187 E1.9777
G1 X128.607 Y94.290 E1.9859
G1 X128.611 Y94.293 E1.9861
G1 X129.774 Y95.185 E2.0528
G1 X129.777 Y95.187 E2.0530
G1 X129.882 Y95.273 E2.0592
G1 X129.885 Y95.275 E2.0593
G1 X130.478 Y95.796 E2.0952
G1 X130.481 Y95.798 E2.0954
G1 X130.580 Y95.891 E2.1016
G1 X130.582 Y95.893 E2.1017
G1 X131.619 Y96.930 E2.1684
G1 X131.623 Y96.934 E2.1687
G1 X131.744 Y97.066 E2.1769
G1 X131.748 Y97.070 E2.1771
G1 X132.690 Y98.193 E2.2438
G1 X132.693 Y98.196 E2.2440
G1 X132.776 Y98.302 E2.2501
G1 X132.778 Y98.305 E2.2503
G1 X133.245 Y98.941 E2.2862
G1 X133.247 Y98.945 E2.2864
G1 X133.323 Y99.056 E2.2925
G1 X133.326 Y99.059 E2.2927
G1 X134.113 Y100.296 E2.3594
G1 X134.116 Y100.300 E2.3596
G1 X134.206 Y100.456 E2.3678
G1 X134.209 Y100.460 E2.3681
G1 X134.896 Y101.780 E2.4358
G1 X134.898 Y101.785 E2.4360
G1 X134.974 Y101.948 E2.4442
G1 X134.976 Y101.953 E2.4444
G1 X135.546 Y103.328 E2.5122
G1 X135.548 Y103.333 E2.5124
G1 X135.610 Y103.502 E2.5206
G1 X135.611 Y103.507 E2.5208
G1 X136.059 Y104.926 E2.5885
G1 X136.060 Y104.931 E2.5888
G1 X136.107 Y105.105 E2.5970
G1 X136.108 Y105.110 E2.5972
G1 X136.426 Y106.541 E2.6639
G1 X136.426 Y106.545 E2.6641
G1 X136.451 Y106.677 E2.6702
G1 X136.452 Y106.681 E2.6704
G1 X136.572 Y107.461 E2.7063
G1 X136.573 Y107.465 E2.7065
G1 X136.589 Y107.599 E2.7126
G1 X136.589 Y107.603 E2.7128
G1 X136.717 Y109.063 E2.7795
G1 X136.718 Y109.069 E2.7797
G1 X136.725 Y109.248 E2.7879
G1 X136.726 Y109.253 E2.7881
G1 X136.726 Y110.742 E2.8559
G1 X136.726 Y110.747 E2.8561
G1 X136.718 Y110.926 E2.8643
G1 X136.717 Y110.932 E2.8645
G1 X136.590 Y112.392 E2.9312
G1 X136.590 Y112.396 E2.9314
G1 X136.573 Y112.530 E2.9375
G1 X136.573 Y112.534 E2.9377
G1 X136.453 Y113.314 E2.9736
G1 X136.452 Y113.318 E2.9738
G1 X136.427 Y113.450 E2.9799
G1 X136.427 Y113.454 E2.9801
G1 X136.110 Y114.885 E3.0468
G1 X136.108 Y114.890 E3.0470
G1 X136.062 Y115.064 E3.0552
G1 X136.060 Y115.069 E3.0555
G1 X135.613 Y116.489 E3.1232
G1 X135.611 Y116.494 E3.1234
G1 X135.550 Y116.663 E3.1316
G1 X135.548 Y116.667 E3.1318
G1 X134.987 Y118.022 E3.1985
G1 X134.986 Y118.025 E3.1987
G1 X134.930 Y118.148 E3.2048
G1 X134.928 Y118.152 E3.2050
G1 X134.579 Y118.860 E3.2409
G1 X134.578 Y118.863 E3.2411
G1 X134.514 Y118.982 E3.2473
G1 X134.512 Y118.986 E3.2474
G1 X133.790 Y120.236 E3.3131
G1 X133.788 Y120.239 E3.3133
G1 X133.717 Y120.354 E3.3194
G1 X133.715 Y120.357 E3.3196
G1 X133.277 Y121.013 E3.3555
G1 X133.274 Y121.017 E3.3557
G1 X133.196 Y121.126 E3.3618
G1 X133.194 Y121.129 E3.3620
G1 X132.315 Y122.274 E3.4277
G1 X132.313 Y122.277 E3.4279
G1 X132.227 Y122.382 E3.4340
G1 X132.225 Y122.385 E3.4342
G1 X131.704 Y122.978 E3.4701
G1 X131.702 Y122.981 E3.4703
G1 X131.609 Y123.080 E3.4764
G1 X131.607 Y123.082 E3.4766
G1 X130.570 Y124.119 E3.5433
G1 X130.566 Y124.123 E3.5435
G1 X130.434 Y124.244 E3.5517
G1 X130.430 Y124.248 E3.5520
G1 X129.290 Y125.205 E3.6197
G1 X129.286 Y125.208 E3.6199
