;FLAVOR:Marlin
;TIME:511
;Filament used: 0.770895m
;Layer height: 0.28
;MINX:79.335
;MINY:79.335
;MINZ:0.28
;MAXX:140.665
;MAXY:140.665
;MAXZ:4.76
;Generated with Cura_SteamEngine 4.2.1
M140 S50
M105
M190 S50
M104 S200
M105
M109 S200
M82 ;absolute extrusion mode
M201 X500.00 Y500.00 Z100.00 E5000.00 ;Setup machine max acceleration
M203 X500.00 Y500.00 Z10.00 E50.00 ;Setup machine max feedrate
M204 P500.00 R1000.00 T500.00 ;Setup Print/Retract/Travel acceleration
M205 X8.00 Y8.00 Z0.40 E5.00 ;Setup Jerk
M220 S100 ;Reset Feedrate
M221 S100 ;Reset Flowrate

G28 ;Home

G92 E0 ;Reset Extruder
G1 Z2.0 F3000 ;Move Z Axis up
G1 X10.1 Y20 Z0.28 F5000.0 ;Move to start position
G1 X10.1 Y200.0 Z0.28 F1500.0 E15 ;Draw the first line
G1 X10.4 Y200.0 Z0.28 F5000.0 ;Move to side a little
G1 X10.4 Y20 Z0.28 F1500.0 E30 ;Draw the second line
G92 E0 ;Reset Extruder
G1 Z2.0 F3000 ;Move Z Axis up

M141 S28
G92 E0
G92 E0
G1 F2700 E-5
;LAYER_COUNT:17
;LAYER:0
M107
;MESH:square.stl
G0 F15000 X80.22 Y139.78 Z0.28
;TYPE:WALL-OUTER
G1 F2700 E0
G1 F6000 X80.22 Y80.22 E3.0507
G1 X139.78 Y80.22 E6.1014
G1 X139.78 Y139.78 E9.1521
G1 X80.22 Y139.78 E12.2028
G1 F2700 E7.2028
G0 F15000 X80.22 Y140.665
G0 X80.397 Y140.628
G0 X80.46 Y140.616
G0 X109.585 Y134.859
G0 X109.653 Y134.847
G0 X109.027 Y135.72
G1 F2700 E12.2028
G1 F6000 X111.22 Y135.72 E12.31512
G1 X111.22 Y135.23 E12.34022
G1 X111.677 Y135.22 E12.36364
G1 X135.22 Y135.22 E13.56952
G1 X135.22 Y111.22 E14.79882
G1 X135.72 Y111.22 E14.82443
G1 X135.72 Y108.78 E14.94941
G1 X135.22 Y108.78 E14.97502
G1 X135.22 Y84.78 E16.20431
G1 X111.22 Y84.78 E17.43361
G1 X111.22 Y84.346 E17.45584
G1 X110.973 Y84.28 E17.46893
G1 X108.78 Y84.28 E17.58126
G1 X108.78 Y84.77 E17.60636
G1 X108.323 Y84.78 E17.62977
G1 X84.78 Y84.78 E18.83566
G1 X84.78 Y104.78 E19.86007
G1 X84.28 Y104.78 E19.88568
G1 X84.28 Y107.22 E20.01066
G1 X84.78 Y107.22 E20.03627
G1 X84.78 Y135.22 E21.47044
G1 X108.78 Y135.22 E22.69974
G1 X108.78 Y135.654 E22.72197
G1 X109.027 Y135.72 E22.73506
G0 F15000 X108.97 Y136.15
;TYPE:SKIN
G1 F3000 X111.65 Y136.15 E22.87233
G1 X111.65 Y135.651 E22.89789
G1 X111.686 Y135.65 E22.89974
G1 X135.65 Y135.65 E24.12719
G1 X135.65 Y111.65 E25.35648
G1 X136.15 Y111.65 E25.38209
G1 X136.15 Y108.35 E25.55112
G1 X135.65 Y108.35 E25.57673
G1 X135.65 Y84.35 E26.80603
G1 X111.65 Y84.35 E28.03532
G1 X111.65 Y84.016 E28.05243
G1 X111.03 Y83.85 E28.0853
G1 X108.35 Y83.85 E28.22258
G1 X108.35 Y84.349 E28.24813
G1 X108.314 Y84.35 E28.24998
G1 X84.35 Y84.35 E29.47743
G1 X84.35 Y104.35 E30.50184
G1 X83.85 Y104.35 E30.52745
G1 X83.85 Y107.65 E30.69648
G1 X84.35 Y107.65 E30.72209
G1 X84.35 Y135.65 E32.15627
G1 X108.35 Y135.65 E33.38556
G1 X108.35 Y135.984 E33.40267
G1 X108.97 Y136.15 E33.43555
G1 F2700 E28.43555
G0 F15000 X109.653 Y134.847
G0 X109.585 Y134.859
G0 X80.888 Y140.616
G0 X80.825 Y140.628
G0 X80.65 Y140.665
G0 X80.65 Y139.35
G1 F2700 E33.43555
G1 F3000 X80.65 Y80.65 E36.4422
G1 X139.35 Y80.65 E39.44884
G1 X139.35 Y139.35 E42.45549
G1 X80.65 Y139.35 E45.46214
G1 F2700 E40.46214
G0 F15000 X79.335 Y139.35
G0 X79.373 Y139.274
G0 X85.606 Y126.995
G0 X85.634 Y126.939
G0 X106.59 Y85.665
G0 X106.59 Y82.59
G1 F2700 E45.46214
G1 F3000 X82.59 Y82.59 E46.69144
G1 X82.59 Y102.59 E47.71585
G1 X82.41 Y102.59 E47.72507
G1 X82.41 Y82.41 E48.7587
G1 X106.59 Y82.41 E49.99722
G1 X106.59 Y82.59 E50.00644
G0 F15000 X107.03 Y82.53
G1 F3000 X107.03 Y83.03 E50.03205
G1 X83.03 Y83.03 E51.26134
G1 X83.03 Y103.03 E52.28575
G1 X82.53 Y103.03 E52.31136
G1 X82.53 Y108.97 E52.61561
G1 X83.03 Y108.97 E52.64122
G1 X83.03 Y136.97 E54.0754
G1 X107.03 Y136.97 E55.3047
G1 X107.03 Y136.998 E55.30613
G1 X108.796 Y137.47 E55.39976
G1 X112.97 Y137.47 E55.61356
G1 X112.97 Y136.97 E55.63917
G1 X136.97 Y136.97 E56.86846
G1 X136.97 Y112.97 E58.09776
G1 X137.47 Y112.97 E58.12337
G1 X137.47 Y107.03 E58.42762
G1 X136.97 Y107.03 E58.45323
G1 X136.97 Y83.03 E59.68252
G1 X112.97 Y83.03 E60.91182
G1 X112.97 Y83.002 E60.91325
G1 X111.204 Y82.53 E61.00688
G1 X107.03 Y82.53 E61.22068
G0 F15000 X107.47 Y82.97
G1 F3000 X107.47 Y83.47 E61.24629
G1 X83.47 Y83.47 E62.47558
G1 X83.47 Y103.47 E63.49999
G1 X82.97 Y103.47 E63.5256
G1 X82.97 Y108.53 E63.78478
G1 X83.47 Y108.53 E63.81039
G1 X83.47 Y136.53 E65.24457
G1 X107.47 Y136.53 E66.47386
G1 X107.47 Y136.66 E66.48052
G1 X108.854 Y137.03 E66.5539
G1 X112.53 Y137.03 E66.74219
G1 X112.53 Y136.53 E66.7678
G1 X136.53 Y136.53 E67.99709
G1 X136.53 Y112.53 E69.22638
G1 X137.03 Y112.53 E69.252
G1 X137.03 Y107.47 E69.51117
G1 X136.53 Y107.47 E69.53678
G1 X136.53 Y83.47 E70.76608
G1 X112.53 Y83.47 E71.99537
G1 X112.53 Y83.34 E72.00203
G1 X111.146 Y82.97 E72.07541
G1 X107.47 Y82.97 E72.2637
G0 F15000 X107.91 Y83.41
G1 F3000 X107.91 Y83.91 E72.28931
G1 X83.91 Y83.91 E73.5186
G1 X83.91 Y103.91 E74.54301
G1 X83.41 Y103.91 E74.56862
G1 X83.41 Y108.09 E74.78272
G1 X83.91 Y108.09 E74.80834
G1 X83.91 Y136.09 E76.24251
G1 X107.91 Y136.09 E77.47181
G1 X107.91 Y136.322 E77.48369
G1 X108.912 Y136.59 E77.53682
G1 X112.09 Y136.59 E77.6996
G1 X112.09 Y136.09 E77.72521
G1 X136.09 Y136.09 E78.9545
G1 X136.09 Y112.09 E80.1838
G1 X136.59 Y112.09 E80.20941
G1 X136.59 Y107.91 E80.42351
G1 X136.09 Y107.91 E80.44912
G1 X136.09 Y83.91 E81.67841
G1 X112.09 Y83.91 E82.90771
G1 X112.09 Y83.678 E82.91959
G1 X111.088 Y83.41 E82.97272
G1 X107.91 Y83.41 E83.1355
G0 F15000 X112.459 Y82.41
G1 F3000 X137.59 Y82.41 E84.42272
G1 X137.59 Y106.59 E85.66124
G1 X137.41 Y106.59 E85.67046
G1 X137.41 Y82.59 E86.89975
G1 X113.133 Y82.59 E88.14323
G1 X112.459 Y82.41 E88.17897
G1 F2700 E83.17897
G0 F15000 X112.459 Y79.335
G0 X81.97 Y79.335
G0 X81.97 Y81.97
G1 F2700 E88.17897
G1 F3000 X138.03 Y81.97 E91.05039
G1 X138.03 Y138.03 E93.92182
G1 X81.97 Y138.03 E96.79325
G1 X81.97 Y81.97 E99.66468
G0 F15000 X81.53 Y81.53
G1 F3000 X138.47 Y81.53 E102.58118
G1 X138.47 Y138.47 E105.49768
G1 X81.53 Y138.47 E108.41418
G1 X81.53 Y81.53 E111.33068
G0 F15000 X81.09 Y81.09
G1 F3000 X138.91 Y81.09 E114.29226
G1 X138.91 Y138.91 E117.25383
G1 X81.09 Y138.91 E120.21541
G1 X81.09 Y81.09 E123.17698
G1 F2700 E118.17698
G0 F15000 X79.335 Y81.09
G0 X79.374 Y81.267
G0 X85.615 Y109.191
G0 X85.628 Y109.254
G0 X85.665 Y109.41
G0 X82.59 Y109.41
G1 F2700 E123.17698
G1 F3000 X82.59 Y137.41 E124.61116
G1 X106.867 Y137.41 E125.85464
G1 X107.541 Y137.59 E125.89038
G1 X82.41 Y137.59 E127.1776
G1 X82.41 Y109.41 E128.621
G1 X82.59 Y109.41 E128.63022
G1 F2700 E123.63022
G0 F15000 X85.665 Y109.41
G0 X134.335 Y113.41
G0 X137.41 Y113.41
G1 F2700 E128.63022
G1 F3000 X137.59 Y113.41 E128.63944
G1 X137.59 Y137.59 E129.87795
G1 X113.41 Y137.59 E131.11647
G1 X113.41 Y137.41 E131.12568
G1 X137.41 Y137.41 E132.35498
G1 X137.41 Y113.41 E133.58427
G0 F15000 X137.736 Y113.157
;TYPE:SKIN
G1 F3000 X137.749 Y112.858 E133.58751
G1 X137.749 Y106.947 E133.65141
G1 F2700 E128.65141
G0 F15000 X140.665 Y106.902
G0 X140.592 Y106.847
G0 X134.407 Y102.226
G0 X112.241 Y85.665
G0 X112.157 Y82.289
G1 F2700 E133.65141
G1 F3000 X111.919 Y82.362 E133.65499
G1 X110.562 Y82.25 E133.67457
G1 X106.841 Y82.262 E133.72809
G1 F2700 E128.72809
G0 F15000 X106.809 Y79.335
G0 X106.774 Y79.372
G0 X101.248 Y85.594
G0 X85.665 Y103.14
G0 X82.249 Y103.095
G1 F2700 E133.72809
G1 F3000 X82.249 Y103.406 E133.73151
G1 X82.249 Y109.006 E133.79296
G1 F2700 E128.79296
G0 F15000 X79.335 Y109.052
G0 X79.405 Y109.114
G0 X85.594 Y114.588
G0 X107.921 Y134.335
G0 X108.078 Y137.635
G1 F2700 E133.79296
G1 F3000 X108.446 Y137.692 E133.79832
G1 X109.747 Y137.748 E133.81703
G1 X113.157 Y137.736 E133.86604
G0 F15000 X113.19 Y137.769
G0 X107.925 Y137.793
G1 F3000 X107.757 Y137.625 E133.87213
G1 F2700 E128.87213
;MESH:NONMESH
G0 F600 X107.757 Y137.625 Z0.56
G0 F15000 X107.757 Y134.335
G0 X107.588 Y134.374
G0 X80.436 Y140.614
G0 X80.373 Y140.628
G0 X80.22 Y140.665
G0 X80.22 Y139.78
;TIME_ELAPSED:73.814006
;LAYER:1
M140 S50
M106 S85
;TYPE:WALL-OUTER
;MESH:square.stl
G1 F2700 E133.87213
G1 F4585.6 X80.22 Y80.22 E136.92283
G1 X139.78 Y80.22 E139.97353
G1 X139.78 Y139.78 E143.02423
G1 X80.22 Y139.78 E146.07492
G1 F2700 E141.07492
G0 F15000 X80.51 Y139.49
G0 X108.46 Y135.72
G0 X108.78 Y135.72
G1 F2700 E146.07492
G1 F4585.6 X111.22 Y135.72 E146.1999
G1 X111.22 Y135.22 E146.22551
G1 X135.22 Y135.22 E147.45481
G1 X135.22 Y111.22 E148.6841
G1 X135.72 Y111.22 E148.70971
G1 X135.72 Y108.78 E148.83469
G1 X135.22 Y108.78 E148.8603
G1 X135.22 Y84.78 E150.0896
G1 X111.22 Y84.78 E151.31889
G1 X111.22 Y84.28 E151.3445
G1 X108.78 Y84.28 E151.46948
G1 X108.78 Y84.78 E151.49509
G1 X84.78 Y84.78 E152.72438
G1 X84.78 Y104.78 E153.7488
G1 X84.28 Y104.78 E153.77441
G1 X84.28 Y107.22 E153.89938
G1 X84.78 Y107.22 E153.925
G1 X84.78 Y135.22 E155.35917
G1 X108.78 Y135.22 E156.58847
G1 X108.78 Y135.72 E156.61408
G0 F15000 X108.46 Y135.72
G0 X102.809 Y135.54
G0 X102.809 Y135.306
;TYPE:FILL
G1 F4585.6 X101.634 Y139.691 E156.8466
G0 F15000 X101.634 Y139.46
G0 X102.711 Y139.46
G0 X102.711 Y139.692
G1 F4585.6 X119.074 Y135.307 E157.7143
G0 F15000 X119.074 Y135.54
G0 X117.198 Y135.54
G0 X117.198 Y135.307
G1 F4585.6 X121.582 Y139.691 E158.03186
G0 F15000 X121.582 Y139.46
G0 X115.299 Y139.46
G0 X115.299 Y139.691
G1 F4585.6 X116.474 Y135.306 E158.26439
G0 F15000 X116.474 Y135.54
G0 X128.965 Y139.46
G0 X128.965 Y139.692
G1 F4585.6 X130.14 Y135.307 E158.49691
G0 F15000 X130.14 Y135.54
G0 X135.468 Y135.468
G0 X135.54 Y134.748
G0 X135.307 Y134.748
G1 F4585.6 X139.691 Y139.133 E158.81451
G0 F15000 X139.46 Y139.133
G0 X135.54 Y130.958
G0 X135.307 Y130.958
G1 F4585.6 X139.691 Y129.783 E159.04699
G0 F15000 X139.46 Y129.783
G0 X139.46 Y120.465
G0 X139.691 Y120.465
G1 F4585.6 X135.307 Y116.08 E159.36459
G0 F15000 X135.308 Y116.02
G1 F4585.6 X139.691 Y99.66 E160.23211
G0 F15000 X139.46 Y99.66
G0 X139.46 Y101.797
G0 X139.691 Y101.797
G1 F4585.6 X135.307 Y97.413 E160.54967
G0 F15000 X135.54 Y97.413
G0 X135.54 Y103.626
G0 X135.307 Y103.626
G1 F4585.6 X139.69 Y102.452 E160.78209
G0 F15000 X139.46 Y102.452
G0 X135.54 Y89.961
G0 X135.308 Y89.961
G1 F4585.6 X139.69 Y88.786 E161.01447
G0 F15000 X139.46 Y88.786
G0 X139.46 Y83.13
G0 X139.691 Y83.13
G1 F4585.6 X136.869 Y80.308 E161.21888
G0 F15000 X136.869 Y80.54
G0 X131.212 Y80.54
G0 X131.212 Y80.306
G1 F4585.6 X130.037 Y84.691 E161.45141
G0 F15000 X130.037 Y84.46
G0 X122.585 Y84.46
G0 X122.585 Y84.691
G1 F4585.6 X118.202 Y80.308 E161.7689
G0 F15000 X117.546 Y80.306
G1 F4585.6 X116.371 Y84.691 E162.00143
G0 F15000 X116.371 Y84.46
G0 X120.334 Y80.54
G0 X120.334 Y80.307
G1 F4585.6 X103.972 Y84.691 E162.86906
G0 F15000 X103.917 Y84.691
G1 F4585.6 X99.534 Y80.308 E163.18655
G0 F15000 X99.534 Y80.54
G0 X103.88 Y80.54
G0 X103.88 Y80.306
G1 F4585.6 X102.705 Y84.692 E163.41912
G0 F15000 X102.705 Y84.46
G0 X90.215 Y80.54
G0 X90.215 Y80.306
G1 F4585.6 X89.04 Y84.692 E163.6517
G0 F15000 X89.04 Y84.46
G0 X85.25 Y84.46
G0 X85.25 Y84.691
G1 F4585.6 X80.866 Y80.308 E163.96923
G0 F15000 X80.866 Y80.54
G0 X84.46 Y89.858
G0 X84.69 Y89.858
G1 F4585.6 X80.308 Y91.032 E164.20159
G0 F15000 X80.54 Y91.032
G0 X80.54 Y98.416
G0 X80.307 Y98.416
G1 F4585.6 X84.691 Y102.8 E164.51916
G0 F15000 X84.69 Y103.523
G1 F4585.6 X80.308 Y104.698 E164.75153
G0 F15000 X80.54 Y104.698
G0 X84.46 Y100.92
G0 X84.691 Y100.92
G1 F4585.6 X80.307 Y117.281 E165.61912
G0 F15000 X80.307 Y117.084
G1 F4585.6 X84.692 Y121.468 E165.93672
G0 F15000 X84.46 Y121.468
G0 X84.46 Y117.189
G0 X84.69 Y117.189
G1 F4585.6 X80.308 Y118.363 E166.16908
G0 F15000 X80.54 Y118.363
G0 X84.46 Y130.855
G0 X84.69 Y130.855
G1 F4585.6 X80.308 Y132.029 E166.40144
G0 F15000 X80.54 Y132.029
G0 X80.54 Y135.751
G0 X80.307 Y135.751
G1 F4585.6 X84.246 Y139.691 E166.68681
G0 F15000 X84.246 Y139.46
G0 X87.968 Y139.46
G0 X87.968 Y139.691
G1 F4585.6 X89.143 Y135.306 E166.91934
G0 F15000 X89.143 Y135.54
G0 X98.531 Y135.54
G0 X98.531 Y135.307
G1 F4585.6 X102.914 Y139.691 E167.23686
G1 F2700 E162.23686
G0 F15000 X102.914 Y139.46
G0 X135.468 Y135.468
G0 X135.54 Y117.292
G0 X135.308 Y117.292
G1 F2700 E167.23686
G1 F4585.6 X139.691 Y116.117 E167.46929
G0 F15000 X139.12 Y116.117
G1 F2700 E162.46929
;MESH:NONMESH
G0 F600 X139.12 Y116.117 Z0.84
G0 F15000 X135.468 Y135.468
G0 X80.51 Y139.49
G0 X80.22 Y139.78
;TIME_ELAPSED:98.379758
;LAYER:2
M106 S170
;TYPE:WALL-OUTER
;MESH:square.stl
G1 F2700 E167.46929
G1 F4698.5 X80.22 Y80.22 E170.51999
G1 X139.78 Y80.22 E173.57069
G1 X139.78 Y139.78 E176.62139
G1 X80.22 Y139.78 E179.67209
G1 F2700 E174.67209
G0 F15000 X80.51 Y139.49
G0 X108.46 Y135.72
G0 X108.78 Y135.72
G1 F2700 E179.67209
G1 F4698.5 X111.22 Y135.72 E179.79707
G1 X111.22 Y135.22 E179.82268
G1 X135.22 Y135.22 E181.05197
G1 X135.22 Y111.22 E182.28127
G1 X135.72 Y111.22 E182.30688
G1 X135.72 Y108.78 E182.43185
G1 X135.22 Y108.78 E182.45746
G1 X135.22 Y84.78 E183.68676
G1 X111.22 Y84.78 E184.91605
G1 X111.22 Y84.28 E184.94166
G1 X108.78 Y84.28 E185.06664
G1 X108.78 Y84.78 E185.09225
G1 X84.78 Y84.78 E186.32155
G1 X84.78 Y104.78 E187.34596
G1 X84.28 Y104.78 E187.37157
G1 X84.28 Y107.22 E187.49655
G1 X84.78 Y107.22 E187.52216
G1 X84.78 Y135.22 E188.95633
G1 X108.78 Y135.22 E190.18563
G1 X108.78 Y135.72 E190.21124
G0 F15000 X108.46 Y135.72
G0 X102.604 Y135.54
G0 X102.604 Y135.306
;TYPE:FILL
G1 F4698.5 X101.429 Y139.691 E190.44377
G0 F15000 X101.429 Y139.46
G0 X103.194 Y139.46
G0 X103.194 Y139.691
G1 F4698.5 X98.811 Y135.307 E190.76129
G0 F15000 X98.811 Y135.54
G0 X103.476 Y139.46
G0 X103.476 Y139.692
G1 F4698.5 X119.839 Y135.307 E191.62899
G0 F15000 X119.839 Y135.54
G0 X117.478 Y135.54
G0 X117.478 Y135.307
G1 F4698.5 X121.862 Y139.691 E191.94655
G0 F15000 X121.862 Y139.46
G0 X115.094 Y139.46
G0 X115.094 Y139.691
G1 F4698.5 X116.269 Y135.306 E192.17908
G0 F15000 X116.269 Y135.54
G0 X128.76 Y139.46
G0 X128.76 Y139.692
G1 F4698.5 X129.935 Y135.307 E192.4116
G0 F15000 X129.935 Y135.54
G0 X135.468 Y135.468
G0 X135.54 Y134.468
G0 X135.307 Y134.468
G1 F4698.5 X139.691 Y138.853 E192.7292
G0 F15000 X139.46 Y138.853
G0 X135.54 Y131.162
G0 X135.307 Y131.162
G1 F4698.5 X139.691 Y129.988 E192.96167
G0 F15000 X139.46 Y129.988
G0 X139.46 Y120.185
G0 X139.691 Y120.185
G1 F4698.5 X135.307 Y115.8 E193.27927
G0 F15000 X135.308 Y115.255
G1 F4698.5 X139.691 Y98.895 E194.14679
G0 F15000 X139.46 Y98.895
G0 X139.46 Y101.517
G0 X139.691 Y101.517
G1 F4698.5 X135.307 Y97.133 E194.46435
G0 F15000 X135.54 Y97.133
G0 X135.54 Y103.831
G0 X135.307 Y103.831
G1 F4698.5 X139.69 Y102.657 E194.69676
G0 F15000 X139.46 Y102.657
G0 X135.54 Y90.166
G0 X135.307 Y90.166
G1 F4698.5 X139.69 Y88.991 E194.92919
G0 F15000 X139.46 Y88.991
G0 X139.46 Y82.85
G0 X139.691 Y82.85
G1 F4698.5 X137.149 Y80.308 E195.11333
G0 F15000 X137.149 Y80.54
G0 X131.007 Y80.54
G0 X131.007 Y80.306
G1 F4698.5 X129.832 Y84.691 E195.34585
G0 F15000 X129.832 Y84.46
G0 X122.865 Y84.46
G0 X122.865 Y84.691
G1 F4698.5 X118.482 Y80.308 E195.66334
G0 F15000 X118.482 Y80.54
G0 X117.341 Y80.54
G0 X117.341 Y80.306
G1 F4698.5 X116.166 Y84.691 E195.89587
G0 F15000 X116.166 Y84.46
G0 X121.099 Y80.54
G0 X121.099 Y80.307
G1 F4698.5 X104.737 Y84.691 E196.7635
G0 F15000 X104.197 Y84.691
G1 F4698.5 X99.814 Y80.308 E197.08099
G0 F15000 X99.814 Y80.54
G0 X103.675 Y80.54
G0 X103.675 Y80.306
G1 F4698.5 X102.5 Y84.691 E197.31352
G0 F15000 X102.5 Y84.46
G0 X90.01 Y80.54
G0 X90.01 Y80.306
G1 F4698.5 X88.835 Y84.692 E197.54609
G0 F15000 X88.835 Y84.46
G0 X85.53 Y84.46
G0 X85.53 Y84.691
G1 F4698.5 X81.146 Y80.308 E197.86362
G0 F15000 X81.146 Y80.54
G0 X84.46 Y90.063
G0 X84.69 Y90.063
G1 F4698.5 X80.307 Y91.237 E198.09604
G0 F15000 X80.54 Y91.237
G0 X80.54 Y98.136
G0 X80.307 Y98.136
G1 F4698.5 X84.691 Y102.52 E198.4136
G0 F15000 X84.46 Y102.52
G0 X84.46 Y103.728
G0 X84.69 Y103.728
G1 F4698.5 X80.307 Y104.903 E198.64603
G0 F15000 X80.54 Y104.903
G0 X84.46 Y100.155
G0 X84.691 Y100.155
G1 F4698.5 X80.307 Y116.516 E199.51361
G0 F15000 X80.307 Y116.804
G1 F4698.5 X84.692 Y121.188 E199.83121
G0 F15000 X84.46 Y121.188
G0 X84.46 Y117.394
G0 X84.69 Y117.394
G1 F4698.5 X80.308 Y118.568 E200.06357
G0 F15000 X80.54 Y118.568
G0 X84.46 Y131.06
G0 X84.69 Y131.06
G1 F4698.5 X80.308 Y132.234 E200.29594
G0 F15000 X80.54 Y132.234
G0 X80.54 Y135.471
G0 X80.307 Y135.471
